actions/24/hint.svg

<?xml version="1.0" encoding="UTF-8" standalone="no"?>
<!-- Created with Inkscape (http://www.inkscape.org/) -->

<svg
   xmlns:dc="http://purl.org/dc/elements/1.1/"
   xmlns:cc="http://creativecommons.org/ns#"
   xmlns:rdf="http://www.w3.org/1999/02/22-rdf-syntax-ns#"
   xmlns:svg="http://www.w3.org/2000/svg"
   xmlns="http://www.w3.org/2000/svg"
   xmlns:xlink="http://www.w3.org/1999/xlink"
   xmlns:sodipodi="http://sodipodi.sourceforge.net/DTD/sodipodi-0.dtd"
   xmlns:inkscape="http://www.inkscape.org/namespaces/inkscape"
   width="24"
   height="24"
   id="svg13094"
   version="1.1"
   inkscape:version="0.48.3.1 r9886"
   sodipodi:docname="hint.svg">
  <sodipodi:namedview
     id="base"
     pagecolor="#ffffff"
     bordercolor="#666666"
     borderopacity="1.0"
     inkscape:pageopacity="0.0"
     inkscape:pageshadow="2"
     inkscape:zoom="32"
     inkscape:cx="14.364875"
     inkscape:cy="8.530789"
     inkscape:document-units="px"
     inkscape:current-layer="layer1"
     showgrid="true"
     inkscape:snap-bbox="true"
     inkscape:bbox-paths="true"
     inkscape:bbox-nodes="true"
     inkscape:snap-bbox-edge-midpoints="true"
     inkscape:snap-bbox-midpoints="true"
     inkscape:object-paths="true"
     inkscape:snap-intersection-paths="true"
     inkscape:object-nodes="true"
     inkscape:snap-smooth-nodes="true"
     inkscape:snap-midpoints="true"
     inkscape:snap-object-midpoints="true"
     inkscape:snap-center="true"
     showguides="false"
     inkscape:guide-bbox="true"
     inkscape:window-width="1920"
     inkscape:window-height="1023"
     inkscape:window-x="-10"
     inkscape:window-y="35"
     inkscape:window-maximized="1"
     inkscape:snap-global="true"
     fit-margin-top="0"
     fit-margin-left="0"
     fit-margin-right="0"
     fit-margin-bottom="0"
     showborder="true"
     inkscape:showpageshadow="false">
    <sodipodi:guide
       orientation="0,1"
       position="-20.000165,933.61275"
       id="guide4700" />
    <sodipodi:guide
       orientation="0,1"
       position="581.7187,331.89377"
       id="guide4702" />
    <sodipodi:guide
       orientation="1,0"
       position="581.71882,492.70384"
       id="guide4706" />
    <sodipodi:guide
       orientation="1,0"
       position="59.999836,933.61275"
       id="guide4708" />
    <sodipodi:guide
       orientation="0,1"
       position="-20.000165,853.61285"
       id="guide4710" />
    <sodipodi:guide
       orientation="0,1"
       position="541.7187,411.89369"
       id="guide4712" />
    <sodipodi:guide
       orientation="1,0"
       position="501.7187,411.89369"
       id="guide4714" />
    <inkscape:grid
       type="xygrid"
       id="grid3216"
       empspacing="5"
       visible="true"
       enabled="true"
       snapvisiblegridlinesonly="true"
       originx="-20.000111px"
       originy="-216.00016px" />
    <sodipodi:guide
       orientation="-0.70710664,0.70710692"
       position="8.9998902,-243.00016"
       id="guide3847" />
    <sodipodi:guide
       orientation="0.70710594,0.70710762"
       position="9.9998902,-242.00016"
       id="guide3849" />
    <sodipodi:guide
       orientation="-0.70710681,0.70710676"
       position="11.99989,-209.00016"
       id="guide3851" />
  </sodipodi:namedview>
  <defs
     id="defs13096" />
  <metadata
     id="metadata13099">
    <rdf:RDF>
      <cc:Work
         rdf:about="">
        <dc:format>image/svg+xml</dc:format>
        <dc:type
           rdf:resource="http://purl.org/dc/dcmitype/StillImage" />
        <dc:title />
      </cc:Work>
    </rdf:RDF>
  </metadata>
  <g
     transform="translate(9384.3076,-4838.1987)"
     id="layer1"
     inkscape:groupmode="layer"
     inkscape:label="Camada 1">
    <path
       style="color:#000000;fill:#EDEFF3;fill-opacity:0.758;fill-rule:nonzero;stroke:none;stroke-width:1;marker:none;visibility:visible;display:inline;overflow:visible;enable-background:accumulate"
       d="M 4.9375 2.9375 L 6.125 5.84375 C 6.2284614 5.6974419 6.3558214 5.5767528 6.46875 5.4375 C 6.4832604 5.4199261 6.4853267 5.3924336 6.5 5.375 C 6.6291625 5.21885 6.7584 5.05405 6.90625 4.90625 C 7.0528477 4.7596523 7.2162813 4.6335879 7.375 4.5 C 7.3927746 4.4852972 7.4196133 4.4832563 7.4375 4.46875 C 7.5699944 4.3593526 7.7035675 4.2248517 7.84375 4.125 L 4.9375 2.9375 z M 19.0625 2.9375 L 16.15625 4.125 C 16.812362 4.592347 17.407653 5.1876381 17.875 5.84375 L 19.0625 2.9375 z M 12 4 C 8.6863 4 6 6.6863 6 10 C 6 11.8323 6.8304 13.4619 8.125 14.5625 L 9.25 20 L 10 20 L 11 21 L 13 21 L 14 20 L 14.75 20 L 15.875 14.5625 C 17.1696 13.4619 18 11.8323 18 10 C 18 6.6863 15.3137 4 12 4 z M 12 6 C 14.2091 6 16 7.7909 16 10 C 16 12.2091 14.2091 14 12 14 C 9.7909 14 8 12.2091 8 10 C 8 7.7909 9.7909 6 12 6 z M 4.90625 8.78125 L 2 10 L 4.90625 11.21875 C 4.8776079 11.051776 4.8649706 10.88787 4.84375 10.71875 C 4.8143149 10.484164 4.78125 10.242945 4.78125 10 C 4.78125 9.7570548 4.8143149 9.5158364 4.84375 9.28125 C 4.8649706 9.1121296 4.8776079 8.9482242 4.90625 8.78125 z M 19.09375 8.78125 C 19.122236 8.9482311 19.135006 9.1121317 19.15625 9.28125 C 19.185717 9.5158335 19.21875 9.75705 19.21875 10 C 19.21875 10.24295 19.185717 10.484158 19.15625 10.71875 C 19.135006 10.887875 19.122236 11.051811 19.09375 11.21875 L 22 10 L 19.09375 8.78125 z M 6.125 14.15625 L 4.9375 17.0625 L 7.21875 16.125 L 7 15.1875 C 6.9681205 15.156938 6.9377607 15.125271 6.90625 15.09375 C 6.61065 14.79815 6.3585 14.48645 6.125 14.15625 z M 17.875 14.15625 C 17.6416 14.48645 17.38945 14.79815 17.09375 15.09375 C 17.062239 15.125261 17.031879 15.156947 17 15.1875 L 16.78125 16.125 L 19.0625 17.0625 L 17.875 14.15625 z M 10 16 L 14 16 L 14 17 L 10 17 L 10 16 z "
       id="path3876"
       transform="translate(-9384.3076,4838.1987)" />
    <path
       style="font-size:medium;font-style:normal;font-variant:normal;font-weight:normal;font-stretch:normal;text-indent:0;text-align:start;text-decoration:none;line-height:normal;letter-spacing:normal;word-spacing:normal;text-transform:none;direction:ltr;block-progression:tb;writing-mode:lr-tb;text-anchor:start;baseline-shift:baseline;color:#000000;fill:#485462;fill-opacity:0.7;fill-rule:nonzero;stroke:none;stroke-width:2;marker:none;visibility:visible;display:inline;overflow:visible;enable-background:accumulate;font-family:Sans;-inkscape-font-specification:Sans"
       d="M 12 2.8125 C 8.0378 2.8125 4.8125 6.0378 4.8125 10 C 4.8125 12.0093 5.70245 13.79175 7.03125 15.09375 L 8.09375 20.25 C 8.198484 20.783523 8.706381 21.209058 9.25 21.21875 L 9.5 21.21875 L 10.15625 21.875 C 10.21182 21.929559 10.278565 21.957483 10.34375 22 L 13.65625 22 C 13.721435 21.957483 13.78818 21.929559 13.84375 21.875 L 14.5 21.21875 L 14.75 21.21875 C 15.304063 21.22335 15.830698 20.793691 15.9375 20.25 L 17.03125 15.03125 C 18.32365 13.73375 19.21875 11.9776 19.21875 10 C 19.21875 6.0378 15.9622 2.8125 12 2.8125 z M 12 4 C 15.3137 4 18 6.6863 18 10 C 18 11.8323 17.1696 13.4619 15.875 14.5625 L 14.75 20 L 14 20 L 13 21 L 11 21 L 10 20 L 9.25 20 L 8.125 14.5625 C 6.8304 13.4619 6 11.8323 6 10 C 6 6.6863 8.6863 4 12 4 z M 10 16 L 10 17 L 14 17 L 14 16 L 10 16 z "
       transform="translate(-9384.3076,4838.1987)"
       id="path3058" />
    <path
       inkscape:transform-center-x="8.814089"
       inkscape:connector-curvature="0"
       id="path3856"
       d="m -9380.2766,4846.0635 -1.6904,-0.4528"
       style="color:#000000;fill:none;stroke:#485462;stroke-width:1;stroke-miterlimit:4;stroke-opacity:0.7;stroke-dasharray:none;marker:none;visibility:visible;display:inline;overflow:visible;enable-background:accumulate"
       sodipodi:nodetypes="cc"
       inkscape:transform-center-y="-2.36175" />
    <use
       height="24"
       width="24"
       inkscape:transform-center-y="-2.19996"
       id="use3868"
       inkscape:transform-center-x="8.210389"
       xlink:href="#path3856"
       y="0"
       x="0"
       transform="matrix(0.70710678,0.70710678,-0.70710678,0.70710678,683.10892,8047.2269)" />
    <use
       height="24"
       width="24"
       inkscape:transform-center-y="-2.19996"
       id="use3870"
       inkscape:transform-center-x="8.210389"
       xlink:href="#path3856"
       y="0"
       x="0"
       transform="matrix(-0.25881905,0.96592583,-0.96592583,-0.25881905,-7115.039,15155.959)" />
    <use
       height="24"
       width="24"
       inkscape:transform-center-y="-2.19996"
       id="use3872"
       inkscape:transform-center-x="8.210389"
       xlink:href="#path3856"
       y="0"
       x="0"
       transform="matrix(-0.8660254,0.5,-0.5,-0.8660254,-15064.865,13733.016)" />
    <use
       height="24"
       width="24"
       inkscape:transform-center-y="-2.19996"
       id="use3874"
       inkscape:transform-center-x="8.210389"
       xlink:href="#path3856"
       y="0"
       x="0"
       transform="matrix(-0.96592583,-0.25881905,0.25881905,-0.96592583,-19680.068,7105.4676)" />
    <use
       x="0"
       y="0"
       xlink:href="#path3856"
       inkscape:transform-center-x="7.3612594"
       id="use3866"
       inkscape:transform-center-y="4.2499665"
       width="24"
       height="24"
       transform="matrix(0.70710678,-0.70710678,0.70710678,0.70710678,-6173.2797,-5207.2178)" />
  </g>
</svg>

<?xml version="1.0" encoding="UTF-8"?>
<svg id="a" width="24" height="24" version="1.1" xmlns="http://www.w3.org/2000/svg" xmlns:cc="http://creativecommons.org/ns#" xmlns:dc="http://purl.org/dc/elements/1.1/" xmlns:rdf="http://www.w3.org/1999/02/22-rdf-syntax-ns#">
	<metadata id="c">
		<rdf:RDF>
			<cc:Work rdf:about="">
				<dc:format>image/svg+xml</dc:format>
				<dc:type rdf:resource="http://purl.org/dc/dcmitype/StillImage"/>
				<dc:title/>
			</cc:Work>
		</rdf:RDF>
	</metadata>
	<defs id="e">
		<style id="current-color-scheme" type="text/css">.ColorScheme-Text {color:#090d11;}.ColorScheme-Background{color:#ffffff;}</style>
	</defs>
	<path id="d" class="ColorScheme-Text" d="m4.9375 2.9375 1.1875 2.9062c0.1035-0.1463 0.2308-0.2669 0.3437-0.4062 0.015-0.018 0.017-0.045 0.031-0.062 0.1292-0.1562 0.2584-0.321 0.4062-0.4688 0.1466-0.1465 0.3101-0.2726 0.4688-0.4062 0.018-0.015 0.045-0.017 0.062-0.031 0.1325-0.1093 0.2661-0.2438 0.4062-0.3437l-2.9062-1.1875zm14.125 0-2.9063 1.1875c0.6562 0.4673 1.2515 1.0626 1.7188 1.7187zm-7.0625 1.0625c-3.3137 0-6 2.6863-6 6 0 1.8323 0.8304 3.4619 2.125 4.5625l1.125 5.4375h0.75l1 1h2l1-1h0.75l1.125-5.4375c1.2946-1.1006 2.125-2.7302 2.125-4.5625 0-3.3137-2.6863-6-6-6zm0 2c2.2091 0 4 1.7909 4 4s-1.7909 4-4 4-4-1.7909-4-4 1.7909-4 4-4zm-7.0938 2.7812-2.9062 1.2188 2.9062 1.2187c-0.029-0.1669-0.041-0.3308-0.062-0.5-0.029-0.2345-0.062-0.4758-0.062-0.7187s0.033-0.4842 0.062-0.7188c0.021-0.1691 0.034-0.333 0.062-0.5zm14.188 0c0.029 0.167 0.041 0.3309 0.062 0.5 0.03 0.2346 0.062 0.4758 0.062 0.7188 0 0.2429-0.033 0.4842-0.062 0.7187-0.021 0.1692-0.034 0.3331-0.062 0.5l2.9063-1.2187zm-12.969 5.375-1.1875 2.9063 2.2812-0.9375-0.2187-0.9375c-0.032-0.031-0.062-0.062-0.094-0.094-0.2956-0.2956-0.5477-0.6073-0.7812-0.9375zm11.75 0c-0.2334 0.3302-0.4856 0.6419-0.7813 0.9375-0.031 0.032-0.062 0.063-0.094 0.094l-0.2188 0.9375 2.2813 0.9375-1.1875-2.9063zm-7.875 1.8438h4v1h-4z" style="fill-opacity:.75;fill:currentColor"/>
	<path id="b" class="ColorScheme-Background" d="m7.4336 1.0898-0.86719 0.5 0.875 1.5156 0.86719-0.5zm9.1328 0-0.875 1.5137 0.86719 0.50195 0.875-1.5176zm-4.5664 1.7227c-3.9622 0-7.1875 3.2253-7.1875 7.1875 0 2.0093 0.89005 3.7917 2.2188 5.0937l1.0625 5.1562c0.1048 0.5335 0.61265 0.95915 1.1562 0.96875h0.25l0.65625 0.65625c0.056 0.055 0.1224 0.083 0.1875 0.125h3.3125c0.065-0.042 0.132-0.07 0.1875-0.125l0.65625-0.65625h0.25c0.5541 0 1.0807-0.42505 1.1875-0.96875l1.0938-5.2188c1.2924-1.2975 2.1875-3.0536 2.1875-5.0312 0-3.9622-3.2566-7.1875-7.2188-7.1875zm0 1.1875c3.3137 0 6 2.6863 6 6 0 1.8323-0.8304 3.4619-2.125 4.5625l-1.125 5.4375h-0.75l-1 1h-2l-1-1h-0.75l-1.125-5.4375c-1.2946-1.1006-2.125-2.7302-2.125-4.5625 0-3.3137 2.6863-6 6-6zm-9.5312 2.9277-0.25781 0.9668 1.6914 0.45312 0.25781-0.9668zm19.059 0.00391-1.6895 0.45117 0.25781 0.9668 1.6914-0.45312zm-16.922 6.7598-1.5156 0.875 0.5 0.86524 1.5156-0.87305zm14.791 0-0.50195 0.86719 1.5156 0.875 0.5-0.86719zm-9.3965 2.3086v1h4v-1z" style="fill-opacity:.5;fill:currentColor"/>
</svg>
